X:1
T:Johan på Tuva
O:Småland
R:Schottis
M:4/4
L:1/8
Z:Andy Davey 2018
K:D
DFFF DFFF | D2 BA G2 E2 | E2 ed c2 A2 | A2 ag f2 d2 | 
DFFF DFFF | D2 BA G2 E2 | E2 ed c2 Bc | d2 f2 d4 | 
ageg f2 df | fe ce d4 | B2 GB A2FD | A,CEG F2 D2 | 
ageg f2 df | fe ce d4 | B2 GB Ac ec | d2 d2 d4 |

